images/d-nose-hover-m.svg

<svg fill="none" height="110" viewBox="0 0 62 110" width="62" xmlns="http://www.w3.org/2000/svg"><path clip-rule="evenodd" d="m41.4443.0000375 20.0987 75.0095625-4.8083 1.2884 3.0921 11.5399-4.8083 1.2884 1.5461 5.7699-4.8084 1.2884 1.1596 4.3274-7.2125 1.933.6442 2.404-18.7524 5.025-.6442-2.405-6.7316 1.804-1.5461-5.77-9.13571 2.448-2.06142-7.6933-4.32747 1.1595-2.963279-11.0591 17.309879-4.6381 1.9326 7.2125 2.885-.7731 1.0307 3.8467 18.7524-5.0247-1.4173-5.2891 2.4042-.6442-1.5461-5.7699-19.3257-72.12464z" fill="#ff512f" fill-rule="evenodd"/></svg>

<svg width="62" height="110" viewBox="0 0 62 110" fill="none" xmlns="http://www.w3.org/2000/svg">
<path fill-rule="evenodd" clip-rule="evenodd" d="M41.4443 3.74998e-05L61.543 75.0096L56.7347 76.298L59.8268 87.8379L55.0185 89.1263L56.5646 94.8962L51.7562 96.1846L52.9158 100.512L45.7033 102.445L46.3475 104.849L27.5951 109.874L26.9509 107.469L20.2193 109.273L18.6732 103.503L9.53749 105.951L7.47607 98.2577L3.1486 99.4172L0.185321 88.3581L17.4952 83.72L19.4278 90.9325L22.3128 90.1594L23.3435 94.0061L42.0959 88.9814L40.6786 83.6923L43.0828 83.0481L41.5367 77.2782L22.211 5.15356L41.4443 3.74998e-05Z" fill="#FF512F"/>
</svg>
